X:710
%%etbk:tnset id:415,pos:3,rep:3x,ant:
%%etbk:wsite https://thesession.org/tunes/1246
%%etbk:wsite http://www.tradschool.com/en/tunes/father-newmans-reel-2/
%%etbk:color #b1f5f5
%%etbk:pldat 2016-09-17T15:31,2016-09-13T16:27,2016-09-11T16:52,2016-09-10T15:43,2016-09-06T18:07,2016-09-03T11:32,2016-08-06T12:43,2016-08-02T17:38,2016-07-15T16:40,2016-06-14T17:34,2015-08-14T17:06,2015-05-05T16:36
T: Father Newman's
Z: Piano Box Version by Martin Fleischmann
H: Created 2015-04-29 /  Last Modified 2016-09-03
R: reel
M: 4/4
L: 1/8
K: Gmaj
!2!e2ge e!1!d!3!BA|!1!~G3!2!B !4!dG (3Bcd|!2!e!4!~a3 !5!bagb|!4!ag!2!ef !4!gedg|
!2!e2ge e!1!d!3!BA|!1!GFGB !4!dG !2!(3Bc!1!d|!2!e!5!aaf gedz|1!2!eg!1!d!2!B !1!G!1!A!2!B!4!d:|2egd!2!B !1!G!1!A!2!B!3!c||
|:!4!d~G3 !5!edB!3!c|!1!d!3!~g3 fgaf|d!3!~g3 bgag|!2!fgeg !2!f!1!d!3!c!1!A|
!4!d~G3 !5!edBc|!1!d3g !2!fgaf|d!3!faf !4!gedg|1eg!1!d!2!B GzBc:|2egdB Gz!2!B!1!d||


